svgs/kaiteki.svg

<svg width="192" height="192" viewBox="0 0 192 192" fill="none" xmlns="http://www.w3.org/2000/svg">
<path d="M73 149.22C73 160.696 64.9411 170 55 170C45.0588 170 37 160.696 37 149.22V42.78C37 31.3035 45.0588 22 55 22C64.9411 22 73 31.3035 73 42.78V149.22Z" stroke="black" stroke-width="12" stroke-linecap="round" stroke-linejoin="round"/>
<path d="M90 63.2908L126.349 26.9652C132.974 20.3449 143.715 20.3449 150.339 26.9652C156.963 33.5854 156.963 44.3188 150.339 50.9387L90.0232 111.214" stroke="black" stroke-width="12" stroke-linecap="round" stroke-linejoin="round"/>
<path d="M115.237 111L143.68 139.227C150.773 146.267 150.773 157.68 143.68 164.72C136.586 171.76 125.086 171.76 117.993 164.72L90 136.94" stroke="black" stroke-width="12" stroke-linecap="round" stroke-linejoin="round"/>
<path d="M115 111L90 136.5" stroke="black" stroke-width="12" stroke-linecap="round" stroke-linejoin="round"/>
<path d="M90 64V110.5" stroke="black" stroke-width="12" stroke-linecap="round" stroke-linejoin="round"/>
</svg>

<svg width="192" height="192" viewBox="0 0 192 192" fill="none" xmlns="http://www.w3.org/2000/svg"><path d="M73 149.22C73 160.696 64.941 170 55 170s-18-9.304-18-20.78V42.78C37 31.303 45.059 22 55 22s18 9.303 18 20.78v106.44ZM90 63.29l36.349-36.325c6.625-6.62 17.366-6.62 23.99 0 6.624 6.62 6.624 17.354 0 23.974l-60.316 60.275M115.237 111l28.443 28.227a17.93 17.93 0 0 1 0 25.493c-7.094 7.04-18.594 7.04-25.687 0L90 136.94M115 111l-25 25.5M90 64v46.5" stroke="#000" stroke-width="12" stroke-linecap="round" stroke-linejoin="round"/></svg>
